X: 8
T:Oira
M:2/4
L:1/16
Q:90
K:A
e4 e3d | c2c2 c4 | e2e2 e2dc | e2e2 e2dc | d4 d3c |B2B2 B4| [Ee]2 [Ee]2
[Ff]2 [Gg]2|[Aa]4 [Aa]4|
|
A2AB cBA2| d2B2 d2B2 |B2Bc dcB2| e2c2 e2c2 |
A2AB cBA2| d2B2 d2B2|B2Bc
 dcB2| e2c2 e2c2|A2AB cBA2| d2B2 d2B2 | [Ee]2 [Ee]2 [Ff]2 [Gg]2|[Aa]4 [A
a]4||
% 1-8 rh with partnerone, two stamp stamp stamp x 2 honour
% stmp stmp stmp r/foot2 , stmp stmp stmp l/foot2 ,  stmp stmp stmp lsho
%ulder2,  stmp stmp stmp rshoulder2,  stmp stmp stmp bum2
%honour, restart. Progress on promenade at start of dance if desired
